X: 1022
T:Planxty Davis (A10)
N: page A10
N: heptatonic
R: hornpipe
C:after Mr. Cronin
B:O'Neill's Music Of Ireland (The 1850) Lyon & Healy, Chicago, 1903 edition
Z:FROM O'NEILL'S TO NOTEWORTHY, FROM NOTEWORTHY TO ABC, MIDI AND .TXT BY VINCE
Z:BRENNAN July 2003 (HTTP://WWW.SOSYOURMOM.COM)
I:abc2nwc
M:2/4
L:1/16
K:D
Q:1/4=60
(DF)|"D"A2AB A2FG|AFAB A3B|AGFE DEFG|\
"F#m"A2AB A2dc| "G"B2Bc B2Ac|BABc B2dB|
"D"AGFE DEFG|"G"B2Bd B2b2| "D"bafb ageg|\
fedf "A"e2de|"D"fedB BAdF|"A"A2AB A2dc|
"G"B2AB "D"d2Bd|"A"e2de "D"f2ed|"G"BABc "D"d2F2|"A"E4 "D"D2::\
(fg)|"D"a2ab a2fg| agab a2fg|
agfe defg|a2ab a2fa| "G"b2bc' b2ga|\
babc' b2c'b|"D"agfe defa| "G"b2b2 b2fa|
 bafb "D"afeg|fedf "A"e2de|"D"fedB "G"BAdF|\
"D"A2AB A2dc| "G"B2AB d2cd|"A"e2de "D"f2ed|"G"BABc "D"d2F2|E4D2 :|
